X:1
T:- # -
%%score [ 1 2 3 4 ]
L:1/8
M:4/4
K:C
V:1 treble nm="Sopran" snm=" "
V:2 treble nm="Alt"
V:3 treble-8 nm="Tenor"
V:4 bass nm="Baß"
V:1
"^Christobal de Morales" G8 | G4 G4 | c6 B2 | A3 B c2"^XVI.  Paulus apostolus" d2- | de f3 edc | %5
w: Pau-|lus a~-|po- *|||
 dG c4 B2 | c6"^1546" BA | G4 z4 | z8 |"^10" z8 | z8 | G8 | G4 z4 | z8 |"^15" z8 | z2 c4 B2 | %16
w: |* sto *|\-lus,||||Pau-|lus|||spi- rans|
 A2 G2 c4- | c2 B2 A2 c2- | cBAG A2 A2 |"^20" G4 A2 B2 | c3 B G2 d2 | c3 B cd e2- | e2 dc B4- | %23
w: in dis- ci-|* pu- los do||||||
 B2 AG A4 |"^25" B4 z4 | z4 G4 | G2 G2 A3 B | c6 BA | B4 c4 |"^30" z2 e4 d2 | c2 A2 c4 | %31
w: * mi- * ni,||cum|i- ter fa *||ce- ret|et ap-|pro- pin- qua-|
 B4 A2 d2- | d2 cB d4 | e4 A3 B |"^35" c2 d3 B e2- | ed d4 c2 | B2 A2 G2 A2 | B2 c2 A2 d2- | %38
w: ret Da- mas-|||||||
 d2 ^c2 d4- |"^40" d4 z2 d2- | d2 d2 G4 | G4 A2 c2- | c2 B2 A2 A2 | G4 G4 |"^45" c3 d e2 d2- | %45
w: * * co,|* su-|* bi- to|cir- cum- ful-|* sit e- um|lux de|cae * * *|
 dc c4 B2 | c8 | z8 | z4 c4 |"^50" c4 G2 B2 | A4 G4- | G4 z2 c2 | d4 G2 c2- | c2 B3 ABG | %54
w: |lo||et|ca- dens in|ter- ra,|* et|ca- dens in|* ter- * * *|
"^55" AG G4 ^F2 | G8- | G4 z2 G2 | A2 G2 c4- | c2 BA B4- |"^60" B4 z2 G2 | A2 G2 c4 | B4 G4 | %62
w: |\-ra|* au-|di- vit vo-|* * * cem,|* au-|di- vit vo-|\-cem di-|
 A3 B c2 d2- | dc c4 B2 |"^65" c4 c4- | c4 c4 | B8 | A8- | A8 |"^70" z4 c4- | c4 c4 | B8 | %72
w: \-cen * * *|* tem si- *|bi: Sau-|* ~le,|Sau-|le,||Sau-|* ~le,|Sau-|
 A4 z2 d2 | d2 A2 c4- |"^75" c2 B2 A2 c2- | cd e3 d d2- | d2 ^c2 d4 | z2 d2 d2 A2 | c4 B2 A2- | %79
w: ~le, quid|me per- se-|||* que- ris,|quid me per-|se * *|
"^80" A2 c3 d e2- | ed d4 ^c2 | d4 d4- | d4 d4 | f6 e2 |"^85" d4 c4- | c4 z4 | c8 | G2 c4 BA | %88
w: |* * * que-|ris? Qui|* au-|di- ta|vo- ce||di-||
 B3 c B4 |[M:4/4]"^Secunda pars" z8 | z8 | z8 | z4 c4- | c4 B4 |"^95" A6 A2 | A8 | A8 | A4 A4 | %98
w: * * xit:||||Quis|* es,|do- mi-|ne?|E-|go sum|
 c8 |"^100" c4 c4- | c2 B2 A4- | A2 GF G4 | A4 A4 | d4 c2 B2- |"^105" BA A4 ^G2 | A4 z4 | z8 | %107
w: Ie-|sus Na-|* za- re-||nus, quem|tu per- se|* * * que-|\-ris,||
 z4 A4 | d4 c2 B2- |"^110" BA A4 ^G2 | A8 | z2 d2 d2 c2 | f4 e4 | c2 e3 d c2- |"^115" c2 BA B4 | %115
w: quem|tu per- se|* * * que-|~ris.|Du- rum est|ti *||* * * bi,|
 z8 | z4 z2 d2 | d2 c2 f4 | e4 c4 |"^120" c2 f4 e2 | d2 d2 c2 e2- | ed c4 B2 | c4 c4- | c4 c4 | %124
w: |du-|\-rum est ti-|bi con-|tra sti- mu-|lum cal- ci- tra||~re. Do-|* mi-|
"^125" B8 | z2 c2 c2 G2 | c6 c2 | B8 | z2 c2 c2 G2 |"^130" c6 c2 | B8 | d8 | G4 G4 | A2 c4 B2 | %134
w: \-ne,|quid me vis|fa- ce-|re,|quid me vis|fa- ce-|\-re.|Sur-|ge, qui-|a vas e-|
"^135" A2 G2 c4 | B8 | z4 G4 | A2 c4 B2 | A2 G2 c4 |"^140" B2 d4 c2 | d3 e f2 e2- | ed d4 ^c2 | %142
w: lec- ti- o-|nis,|qui-|\-a vas e-|lec- ti- o-|nis fac- tus|es * * mi||
 d4 d4 | d4 f4- |"^145" f2 e2 d4 | c4 A2 B2- | BA A4 G2 | A8- | A8- |"^150" A8 | z4 z2 A2 | %151
w: ~hi, ple-|nus spi-|* ri- tu|sanc * *||to,|||ut|
 A2 A2 d4- | d2 c2 f4 | e4 z2 E2 |"^155" E2 E2 A4- | A2 G2 c4 | B4 A4 | A2 A2 d4 | c3 B AG A2- | %159
w: por- tes no-|* men me-|um, ut|por- tes no-|* men me-|\-um in|u- ni- ver-||
"^160" AB c2 B2 A2- | AG G4 ^F2 |[M:3/4] G6 | A4 A2 | A2 d4 |"^165" c3 B AG | A3 B c2 | B2 A3 G | %167
w: * * * so mun||\-do,|in u-|ni- ver-|||so mun *|
 G4 ^F2 | G6 |] %169
w: |~~do.|
V:2
 z8 | C8 | C4 E4 | F6 F2 | D3 E F2 G2- | G2 FE D4 | E6 DC | E3 F G4 | z2 C2 F4- | F2 D2 D4 | %10
w: |Pau-|lus a~-|po- *|||* sto *|\-lus, * *|a~- po-|* sto- ~lus|
w: ||||||||||
 G6 F2 | E2 C2 E4- | E2 D2 C2 D2 | E3 F G4 | C4 z2 G2- | G2 F2 E2 D2 | E6 E2 | C2 DE FG A2- | %18
w: spi- rans|in dis- ci-|* pu- los do-|\-mi- * ni,|* spi-|* rans in dis-|ci- pu-|los do * * * *|
w: ||||||||
 AG G2 F2 E2- | E2 D2 E2 G2- | G2 CD EFGF | A3 G E2 G2- | G2 F2 G4 | D2 G4 ^F2 | G6 G2 | %25
w: |* mi- ni, do-|||* mi- ni,|cum i- ter|fa- ce-|
w: |||||||
 C4 z2 C2- | C2 G4 F2 | E6 E2 | D2 E4 A2 | G2 E2 F4- | F4 E4- | E4 F4 | D2 E3 D D2- | D2 C2 D3 C | %34
w: \-ret, cum|* i- ter|fa- ce-|ret et ap-|pro- pin- qua-|* ret|* Da-|\-mas * * *||
w: |||||||||
 A,2 B,2 G,4 | z4 z2 G2- | G2 F2 E2 D2 | G4 F2 G2 | E4 D3 E | F3 G A4 | z4 z2 G2- | G2 G2 C4 | %42
w: |et|* ap- pro- pin-|qua- ret Da-|\-mas * *|* * co,|su-|* bi- to|
w: * * co,||||||||
 G4 F2 E2- | E2 D2 E3 F | G4 C2 G2- | G2 A2 F2 F2 | G4 C2 E2 | D2 G3 F F2 | G2 G2 G4 | C2 E4 G2- | %50
w: cir- cum- ful-|* sit e- um|lux de cae-|* * lo et|ca- dens in|ter * * *|ra, et ca-|dens in ter-|
w: ||||||||
 G^F/E/ F2 G3 =F | E2 D2 E4 | F4 E2 G2 | G4 D2 D2 | E2 C2 D4 | E2 C4 B,A, | B,3 C/D/ E4 | %57
w: ||* ~ra, et|ca- dens in|ter- * *||* * * ra|
w: |||||||
 C4 z2 C2 | D2 D2 G4- | G4 E4 | z2 E2 E2 E2 | G4 E4 | E4 A4 | A4 G4 | E4 G4- | G4 G4 | G8 | E8- | %68
w: * au-|di- vit vo-|* cem,|au- di- vit|vo- cem|di- cen-|tem si-|bi: Sau-|* ~~le,|Sau-|le,|
w: |||||||||||
 E8 | z4 A4- | A4 A4 | G8 | F2 D2 F3 G | A4 z2 A2 | A2 D2 F3 F | E2 G3 F D2 | E4 D2 F2- | %77
w: |Sau-|* ~le,|Sau-||~le, quid|me per- se- que-|ris, * * *||
w: |||||||||
 FG A2 D4 | z8 | z2 A2 G2 E2 | G2 G2 A4- | A4 F4- | F2 F2 G4 | A4 F4- | F2 G2 A4- | A4 G4- | %86
w: ||quid me per-|se- que- ris?|* Qui|* au- di-|ta vo-|* * ce|* di-|
w: |||||||||
 G4 E4 | z4 G4- | G4 G4 |[M:4/4] G8 | F4 E4- | E2 E2 D4 | z8 | G6 F2 | E6 E2 | F8 | E8 | E4 E4 | %98
w: * xit,|di-|* xit:|Quis|es, do-|* mi- ne?||Quis es,|do- mi-|ne?|E-|go sum|
w: ||||||||||||
 A8 | G4 A4- | A2 G2 F2 E2 | D3 C D4 | E2 F3 E C2 | D4 z4 | z4 D4 | F6 E2 | D2 F2 E2 D2- | %107
w: Ie-|sus Na-|* za- re *|||~~nus,|quem|tu per-|se * * *|
w: |||||||||
 D2 C2 DEFG | A2 G3 E G2 | F4 E4 | EDCB, C4 | D4 z2 A2 | A2 A2 c3 B | AG A2 G3 F | E2 D2 G4 | %115
w: |||* * * * que-|\-ris. Du-|rum est ti *||* * bi|
w: ||||||||
 E4 E2 G2- | G2 F2 E2 D2 | G2 A2 F3 G | A2 GF G4 | A6 A2 | G3 G A4 | G2 A2 G4 | E4 G4- | G4 G4 | %124
w: con- tra sti-|* mu- lum cal-|\-ci- tra * *|* * * re,|con- tra|sti- mu- lum|cal- ci- tra-|~re. Do-|* mi-|
w: |||||||||
 G4 z2 D2 | E4 C2 CD | EF G4 F2 | G4 z2 D2 | E4 C2 CD | EF G4 F2 | G8 | z2 G4 F2- | F2 ED E3 C | %133
w: \-ne, quid|me vis fa *|* * * ce-|re, quid|me vis fa *|* * * ce-|\-re.|Sur *||
w: |||||||||
 E4 D4 | E4 G2 G2- | G2 F2 E2 D2 | F2 E4 D2 | E2 F2 D4 | E3 F G4 | G4 A2 A2 | DEFG A4- | A8 | F8 | %143
w: ge, *|qui- a vas|* e- lec- ti-|o- nis fac-|\-tus es mi-|* * hi,|fac- tus es|mi * * * hi,||ple-|
w: ||||||||||
 G4 A4- | A4 A4 | A4 F2 G2 | E2 F4 D2 | E4 E4 | F2 D2 F4 | E3 D E2 F2- | F2 ED C4 | F2 A4 G2 | %152
w: nus spi-|* ri-|tu sanc *||~to, ut|por- tes no-||* * * men,|ut por- tes|
w: |||||||||
 A2 A2 F4 | G8 | A3 G F2 E2- | EF G4 F2 | G4 z2 D2 | F3 G A2 B2 | A4 F3 G | A2 G4 F2 | E4 D4 | %161
w: no- men me-||||\-um in|u- ni- ver- so|mun- * *||* ~do,|
w: |||||||||
[M:3/4] D2 D2 D2 | F3 E/D/ F2- | FG A2 B2 | A4 F2- | FG A2 G2- | G2 F2 E2- | E2 D4 | D6 |] %169
w: in u- ni-|ver * * *||so mun||||~~do.|
w: ||||||||
V:3
 z8 | z8 | z8 | z8 | z8 | G8 | G4 G4 | c6 B2 | A3 B c2 d2- | de f3 edc | dG c3 B/A/ B2 | c6 BA | %12
w: |||||Pau-|lus a-|\-po *||||* sto *|
 G4 z2 g2- | g2 f2 e2 d2 | e6 d2 | c4 g4 | c2 c3 Bcd | e2 f2 d2 c2 | e4 d2 c2 | z2 G2 c2 d2 | %20
w: lus spi-|* rans in dis-|ci- pu-|los do-|mi- * * * *|ni, do- * *|* mi- ni,|spi- rans in|
 e4 c2 d2 | f2 e3 dcB | c4 d4 | G4 d4 | z2 d4 g2- | g2 f2 e4- | e2 e2 d4 | g6 g2 | g2 g2 e4 | %29
w: dis- ci- pu-|los do- * * *|mi- *|* ni,|cum i-|* ter fa-|* ce- ret|et ap-|pro- pin- qua-|
 e2 c2 d4 | A8 | z8 | z8 | z2 g4 f2 | e2 d2 g4 | f2 g2 e4 | d4 z4 | z8 | z2 a4 a2 | d3 e fgaf | %40
w: ret Da- mas-|co,|||et ap-|pro- pin- qua-|ret Da- mas-|co,||su- bi-|to * * * * *|
 g3 f/e/ d2 e2- | e2 d2 e3 c | d2 d2 c4 | z2 G2 c3 d | e3 f g3 f | e2 f2 d4 | e4 z2 g2 | g4 c3 d | %48
w: * * * * cir-|* cum- ful- sit|e- um lux|de cae *|||lo et|ca- dens *|
 ec d2 c2 e2- | ed c3 B G2 | d2 d2 d4 | G2 B2 AG c2- | c2 B2 c3 B | G3 A BcdB | cB BA/G/ A2 A2 | %55
w: * * * in ter-||\-ra, et ca-|dens in ter- * *|||* * * * * ra au-|
 c2 c2 e4 | d4 z4 | z2 e2 e2 e2 | g3 f e2 dc | d2 e3 f g2 | c4 z2 c2 | d2 d2 e2 c2- | c2 c2 f4 | %63
w: \-di- vit vo-|~cem,|au- di- vit|vo- * * * *||cem, au-|\-di- vit vo- cem|* di- ce-|
 e2 f2 d4 | c4 e4- | e4 e4 | e4 d4- | d2 cB c3 d | c8 | z4 f4- | f4 f4 | d8 | d2 f3 e d2- | %73
w: * tem si-|bi: Sau-|* ~le,|Sau *||~le,|Sau-|* ~le,|Sau-|le, Sau * *|
 dc d2 A4 | z8 | z8 | z4 z2 a2 | a2 d2 f4- | f2 e2 d3 e | f2 e3 f g2- | gf d2 e4 | d4 A4- | %82
w: * * * ~le,|||quid|me per- se|||* * * que-|ris? Qui|
 A2 A2 B4 | c4 d4- | d4 e4 | f6 ed | e3 f g4 | e6 dc | d2 e2 d4 |[M:4/4] z8 | z8 | g8 | f4 e4- | %93
w: * au- di-|ta vo-|||* * ce|di- * *|* * xit:|||Quis|es, do-|
 e2 e2 d4- | d2 cB c4 | d8 | c8 | c4 c4 | f8 | e4 f4 | f2 d4 c2 | f3 e d4 | c4 z2 f2 | f2 d2 e3 d | %104
w: * mi- ne?|||E-|go sum|Ie-|sus Na-|za- re- *||nus, quem|tu per- se- *|
 c2 d2 B4 | c4 d4 | z8 | e4 f4- | f2 d2 e3 d | c2 d2 B4 | ABcd e2 f2- | f2 ed e3 f | d4 c4 | %113
w: * * que-|\-ris, *||quem tu|* per- se *||||que- ris.|
 z2 e2 e2 e2 | g4 d4 | c6 d2 | e2 f2 g2 G2 | G2 c3 B/A/ B2 | c2 c4 e2 | f3 f c4 | d3 e f2 e2- | %121
w: Du- rum est|ti- bi|con- tra|sti- mu- lum cal-|\-ci- tra * * *|re, con- tra|sti- mu- lum|cal- ci- tra- *|
 e2 f2 d4 | c4 e4- | e4 e4 | d2 d2 g4- | g2 e2 f2 e2 | edcB c4 | d2 d2 g4- | g2 e2 f2 e2 | %129
w: |~re. Do-|* mi-|\-ne, quid me|* vis fa- ce-|re, * * * *|* quid me|* vis fa- ce-|
 edcB c4 | d8 | GABG A3 B | c4 c4- | c4 G4 | c2 e4 dc | d4 g4 | c4 z4 | z4 G4 | c2 c4 c2 | %139
w: re. * * * *|Sur-||ge, sur|||ge, sur-|ge,|qui-|a vis e-|
 d3 e f4 | f2 d2 d2 c2 | f3 e/d/ e4 | d4 z4 | B4 c2 c2 | d2 e2 f4- | f2 ed c2 d2- | d2 c2 dG d2- | %147
w: lec- ti- o-|nis fac- tus es|mi- * * *|hi,|ple- nus spi-|\-ri- tu sanc|||
 d2 ^cB c4 | d4 z2 A2 | A2 A2 c4 | d2 f4 e2 | d3 c/B/ A2 B2 | A2 c3 BBA | c4 B4 | c6 c2 | e3 d c4 | %156
w: |to, ut|por- tes no-|\-men me- *|||um, ut|por- tes|no- men me-|
 d8 | z2 d2 d2 d2 | f2 c2 d3 c | f2 e2 d3 c | B2 c2 A4 |[M:3/4] G6 | d2 d2 d2 | f4 d2 | f2 c2 d2- | %165
w: \-um|in u- ni-|ver- so mun *|||\-do,|in u- ni-|ver- so|mun * *|
 dc f2 e2 | d3 c B2 | c2 A4 | G6 |] %169
w: |||~~do.|
V:4
 z8 | z8 | z8 | z8 | z8 | z8 | C,8 | C,4 E,4 | F,6 F,2 | D,3 E, F,2 G,2- | G,2 F,E, D,4 | %11
w: ||||||Pau-|\-lus a~-|po- sto-|lus * * *||
 C,4 z2 C2- | C2 B,2 A,2 G,2 | C6 B,2 | A,2 C3 B,A,G, | A,2 A,2 G,4 | z8 | z8 | z4 z2 C2- | %19
w: * spi-|* rans in dis-|\-ci- pu-|los do * * *|* mi- ni,|||spi-|
 C2 B,2 A,2 G,2 | C6 B,2 | %21
w: * rans in dis-|ci- pu-|
 A,2 C3"^© Michael Wendel 2005\nThis edition may be freely duplicated, distributed, performed or recorded for non-profit performance or use.\n" B,A,G, | %22
w: los do * * *|
 A,2 A,2 G,4 | z4 D,4 | G,6 G,2 | A,3 B, C4 | z8 | C,4 G,4- | G,2 G,2 A,3 B, | C4 z4 | z4 z2 A,2- | %31
w: * mi- ni,|cum|i- ter|fa- ce- ret,||cum i-|* ter fa- ce-|ret|et|
 A,2 G,2 F,2 D,2 | G,4 F,2 G,2 | E,4 D,4 | z8 | z8 | z4 z2 D2- | D2 C2 D2 G,2 | A,4 D,4 | %39
w: * ap- pro- pin-|\-qua- ret Da-|mas- co,|||Da-|* * mas *|* co,|
 z2 D4 D2 | G,2 G,2 G,2 C2- | C2 B,2 A,2 A,2 | G,4 A,2 C2- | CB,/A,/ B,2 C4- | C4 z4 | z8 | C4 C4 | %47
w: su- bi-|to cir- cum- ful-|* sit e- um|lux de cae|* * * * lo|||et ca-|
 G,2 B,2 A,4 | G,4 z4 | z8 | z4 G,4 | G,4 C,2 E,2 | D,4 C,4 | z2 G,2 G,4 | C,2 E,2 D,4 | C,4 G,4 | %56
w: dens in ter-|ra,||et|ca- dens in|ter- ~ra,|et ca-|dens in ter-|\-ra au-|
 G,2 G,2 C4 | A,2 C4 B,A, | G,4 z2 G,2 | G,2 G,2 C4 | A,2 C4 B,A, | G,2 G,2 C3 B, | A,3 G, F,3 G, | %63
w: di- vit vo-||cem, au-|di- vit vo-||\-cem di- cen- *||
 A,2 F,2 G,4 | C,4 C4- | C4 C4 | G,8 | A,8- | A,8 | z4 F,4- | F,4 F,4 | G,8 | D,8- | D,4 z4 | %74
w: * tem si-|bi: Sau-|* ~le,|Sau-|le,||Sau-|* ~le,|Sau-|le,||
 z2 D2 D2 A,2 | C6 B,2 | A,4 D,4- | D,8 | z4 z2 D2 | D2 A,2 C4- | C2 B,2 A,4 | D,8 | D,4 G,4 | %83
w: quid me per-|se- *|\-que- ris,||quid|me per- se-|* que- ris?|Qui|au- di-|
 F,4 _B,4- | B,4 A,4- | A,4 C4- | C8- | C4 G,4- | G,8 |[M:4/4] z8 | z4 C4- | C4 B,4 | A,6 A,2 | %93
w: ta vo-|* ce|* di-||* xit:|||Quis|* es,|do- mi-|
 G,8 | A,8 | D,8 | A,8 | A,4 A,4 | F,8 | C,4 F,4- | F,2 G,2 A,4 | _B,8 | A,3 G, F,3 E, | D,4 z4 | %104
w: ne?|||E-|go sum|Ie-|sus Na-|* za- re-|||~nus,|
 z8 | A,4 B,4- | B,2 A,2 G,2 G,2 | E,4 D,3 E, | F,2 G,2 C,2 E,2 | F,2 D,2 E,4 | z2 A,2 A,2 F,2 | %111
w: |quem tu|* per- se- que-|ris, tu *|* per- se- *|* que- ris.|Du- rum est|
 B,4 A,4 | z4 z2 A,2 | A,2 A,2 C4 | G,6 G,2 | A,2 C4 B,2 | A,4 G,3 F, | E,2 F,2 D,4 | C,8 | %119
w: ti- bi,|du-|rum est ti-|bi con-|tra sti- mu-|lum cal- ci-|\-tra * *|~re,|
 z2 F,2 F,2 C2- | C2 B,2 A,2 C2- | C2 F,2 G,4 | C,4 C4- | C4 C4 | G,4 G,4 | C4 A,2 C2- | %126
w: con- tra sti-|* mu- lum cal-|* ci- tra-|re. Do-|* mi-|\-ne, quid|me vis fa-|
 CB,A,G, A,2 A,2 | G,4 G,4 | C4 A,2 C2- | CB,A,G, A,2 A,2 | G,4 G,4- | G,4 D,4 | z8 | z8 | C8 | %135
w: * * * * * ce-|re, quid|me vis fa-|* * * * * ce-|\-re. Sur-|* ge,|||sur-|
 G,4 G,4 | A,2 C4 B,2 | A,2 F,2 G,4 | C,8 | G,4 F,2 F,2 | _B,4 A,4- | A,4 A,4 | _B,6 A,2 | %143
w: ge, qui-|a vas e-|\-lec- ti- o-|nis|fac- tus es|mi- hi,|* ple-|nus spi-|
 G,4 F,3 E, | D,2 C,2 D,4 | A,6 G,2 | A,4 _B,4 | A,8 | D,4 D,2 D,2 | A,6 F,2 | _B,4 A,4 | %151
w: ri- * *|* * tu|sanc- *||~to,|ut por- tes|no- men|me- um,|
 D,3 E, F,2 G,2 | F,3 E, D,4 | C,2 C,2 E,2 E,2 | A,6 A,2 | C3 B, A,4 | G,4 z4 | D,4 F,2 G,2 | %158
w: no- * * men|me- * *|um, ut por- tes|no- men|me- * *|\-um|in u- ni-|
 A,4 D,2 F,2- | F,E, C,2 D,4 | E,2 C,2 D,4 |[M:3/4] G,6 | z2 z2 D,2- | D,2 F,2 G,2 | A,4 D,2 | %165
w: ver- so mun|||\-do,|in|* u- ni-|ver- so|
 F,3 E, C,2 | D,4 E,2 | C,2 D,4 | G,6 |] %169
w: mun * *|||~~do.|

